X: 335
P: Longways for as many as will
M: 6/4
L: 1/4
K: C
c2g e>dc | a>gf e>ag | ^f>ed g>a^f | g3- g2 :|\
|: d |\
a2g a2g | a2g a2g | e>dc dB2 | c3- c2 :|

